image/explore/icon-2.svg

<svg xmlns="http://www.w3.org/2000/svg" width="32" height="36" viewBox="0 0 32 36" fill="none"><rect x="1" y="1" width="30" height="34" rx="3" stroke="#2E2E2E" stroke-width="2"></rect><rect x="13.5" y="3.5" width="5" height="1" rx="0.5" stroke="#2E2E2E"></rect><rect x="15" y="30" width="2" height="2" rx="1" stroke="#2E2E2E" stroke-width="2"></rect><mask id="path-4-inside-1_7745_10740" fill="white"><path fill-rule="evenodd" clip-rule="evenodd" d="M21.5433 18.993C21.8448 19.7209 22 20.5011 22 21.2891L10 21.2891C10 20.5011 10.1552 19.7209 10.4567 18.993C10.7583 18.265 11.2002 17.6036 11.7574 17.0464C12.3145 16.4893 12.9759 16.0473 13.7039 15.7458C14.4319 15.4443 15.2121 15.2891 16 15.2891C16.7879 15.2891 17.5681 15.4443 18.2961 15.7458C19.0241 16.0473 19.6855 16.4893 20.2426 17.0464C20.7998 17.6036 21.2417 18.265 21.5433 18.993ZM14.5 19.0334C14.5 19.4476 14.1642 19.7834 13.75 19.7834C13.3358 19.7834 13 19.4476 13 19.0334C13 18.6192 13.3358 18.2834 13.75 18.2834C14.1642 18.2834 14.5 18.6192 14.5 19.0334ZM19 19.0334C19 19.4476 18.6642 19.7834 18.25 19.7834C17.8358 19.7834 17.5 19.4476 17.5 19.0334C17.5 18.6192 17.8358 18.2834 18.25 18.2834C18.6642 18.2834 19 18.6192 19 19.0334Z"></path></mask><path fill-rule="evenodd" clip-rule="evenodd" d="M21.5433 18.993C21.8448 19.7209 22 20.5011 22 21.2891L10 21.2891C10 20.5011 10.1552 19.7209 10.4567 18.993C10.7583 18.265 11.2002 17.6036 11.7574 17.0464C12.3145 16.4893 12.9759 16.0473 13.7039 15.7458C14.4319 15.4443 15.2121 15.2891 16 15.2891C16.7879 15.2891 17.5681 15.4443 18.2961 15.7458C19.0241 16.0473 19.6855 16.4893 20.2426 17.0464C20.7998 17.6036 21.2417 18.265 21.5433 18.993ZM14.5 19.0334C14.5 19.4476 14.1642 19.7834 13.75 19.7834C13.3358 19.7834 13 19.4476 13 19.0334C13 18.6192 13.3358 18.2834 13.75 18.2834C14.1642 18.2834 14.5 18.6192 14.5 19.0334ZM19 19.0334C19 19.4476 18.6642 19.7834 18.25 19.7834C17.8358 19.7834 17.5 19.4476 17.5 19.0334C17.5 18.6192 17.8358 18.2834 18.25 18.2834C18.6642 18.2834 19 18.6192 19 19.0334Z" fill="#C63031"></path><path d="M22 21.2891V23.2891H24V21.2891H22ZM21.5433 18.993L19.6955 19.7583L19.6955 19.7583L21.5433 18.993ZM10 21.2891H8V23.2891H10L10 21.2891ZM10.4567 18.993L8.60896 18.2276V18.2276L10.4567 18.993ZM11.7574 17.0464L10.3431 15.6322L10.3431 15.6322L11.7574 17.0464ZM13.7039 15.7458L14.4693 17.5935H14.4693L13.7039 15.7458ZM18.2961 15.7458L19.0615 13.898L19.0615 13.898L18.2961 15.7458ZM20.2426 17.0464L21.6569 15.6322L21.6569 15.6322L20.2426 17.0464ZM24 21.2891C24 20.2385 23.7931 19.1982 23.391 18.2276L19.6955 19.7583C19.8965 20.2436 20 20.7638 20 21.2891H24ZM10 23.2891L22 23.2891V19.2891L10 19.2891L10 23.2891ZM8.60896 18.2276C8.20693 19.1982 8 20.2385 8 21.2891H12C12 20.7638 12.1035 20.2436 12.3045 19.7583L8.60896 18.2276ZM10.3431 15.6322C9.60028 16.3751 9.011 17.257 8.60896 18.2276L12.3045 19.7583C12.5055 19.273 12.8001 18.8321 13.1716 18.4606L10.3431 15.6322ZM12.9385 13.898C11.9679 14.3001 11.086 14.8893 10.3431 15.6322L13.1716 18.4606C13.543 18.0892 13.984 17.7946 14.4693 17.5935L12.9385 13.898ZM16 13.2891C14.9494 13.2891 13.9091 13.496 12.9385 13.898L14.4693 17.5935C14.9546 17.3925 15.4747 17.2891 16 17.2891V13.2891ZM19.0615 13.898C18.0909 13.496 17.0506 13.2891 16 13.2891V17.2891C16.5253 17.2891 17.0454 17.3925 17.5307 17.5935L19.0615 13.898ZM21.6569 15.6322C20.914 14.8893 20.0321 14.3001 19.0615 13.898L17.5307 17.5935C18.016 17.7946 18.457 18.0892 18.8284 18.4606L21.6569 15.6322ZM23.391 18.2276C22.989 17.257 22.3997 16.3751 21.6569 15.6322L18.8284 18.4606C19.1999 18.8321 19.4945 19.273 19.6955 19.7583L23.391 18.2276ZM13.75 21.7834C15.2688 21.7834 16.5 20.5522 16.5 19.0334H12.5C12.5 18.343 13.0596 17.7834 13.75 17.7834V21.7834ZM11 19.0334C11 20.5522 12.2312 21.7834 13.75 21.7834V17.7834C14.4404 17.7834 15 18.343 15 19.0334H11ZM13.75 16.2834C12.2312 16.2834 11 17.5146 11 19.0334H15C15 19.7237 14.4404 20.2834 13.75 20.2834V16.2834ZM16.5 19.0334C16.5 17.5146 15.2688 16.2834 13.75 16.2834V20.2834C13.0596 20.2834 12.5 19.7237 12.5 19.0334H16.5ZM18.25 21.7834C19.7688 21.7834 21 20.5522 21 19.0334H17C17 18.343 17.5596 17.7834 18.25 17.7834V21.7834ZM15.5 19.0334C15.5 20.5522 16.7312 21.7834 18.25 21.7834V17.7834C18.9404 17.7834 19.5 18.343 19.5 19.0334H15.5ZM18.25 16.2834C16.7312 16.2834 15.5 17.5146 15.5 19.0334H19.5C19.5 19.7237 18.9404 20.2834 18.25 20.2834V16.2834ZM21 19.0334C21 17.5146 19.7688 16.2834 18.25 16.2834V20.2834C17.5596 20.2834 17 19.7237 17 19.0334H21Z" fill="#C63031" mask="url(#path-4-inside-1_7745_10740)"></path><path fill-rule="evenodd" clip-rule="evenodd" d="M12.1097 14.4392C12.4331 14.1805 12.9051 14.2329 13.1638 14.5564L15.0379 16.899C15.2967 17.2224 15.2442 17.6944 14.9208 17.9531C14.5973 18.2119 14.1254 18.1595 13.8666 17.836L11.9925 15.4934C11.7338 15.17 11.7862 14.698 12.1097 14.4392Z" fill="#C63031"></path><path fill-rule="evenodd" clip-rule="evenodd" d="M20.07 14.4392C19.7466 14.1805 19.2746 14.2329 19.0159 14.5564L17.1418 16.899C16.883 17.2224 16.9355 17.6944 17.2589 17.9531C17.5823 18.2119 18.0543 18.1595 18.3131 17.836L20.1872 15.4934C20.4459 15.17 20.3935 14.698 20.07 14.4392Z" fill="#C63031"></path></svg>

<svg xmlns="http://www.w3.org/2000/svg" width="32" height="36" fill="none"><rect x="1" y="1" width="30" height="34" rx="3" stroke="#2E2E2E" stroke-width="2"/><rect x="13.5" y="3.5" width="5" height="1" rx=".5" stroke="#2E2E2E"/><rect x="15" y="30" width="2" height="2" rx="1" stroke="#2E2E2E" stroke-width="2"/><mask id="a" fill="#fff"><path fill-rule="evenodd" clip-rule="evenodd" d="M21.543 18.993A6 6 0 0 1 22 21.289H10a6 6 0 0 1 11.543-2.296Zm-7.043.04a.75.75 0 1 1-1.5 0 .75.75 0 0 1 1.5 0Zm4.5 0a.75.75 0 1 1-1.5 0 .75.75 0 0 1 1.5 0Z"/></mask><path fill-rule="evenodd" clip-rule="evenodd" d="M21.543 18.993A6 6 0 0 1 22 21.289H10a6 6 0 0 1 11.543-2.296Zm-7.043.04a.75.75 0 1 1-1.5 0 .75.75 0 0 1 1.5 0Zm4.5 0a.75.75 0 1 1-1.5 0 .75.75 0 0 1 1.5 0Z" fill="#C63031"/><path d="M22 21.29v2h2v-2h-2Zm-.457-2.297-1.848.765 1.848-.765ZM10 21.289H8v2h2v-2Zm.457-2.296-1.848-.765 1.848.765Zm1.3-1.947-1.414-1.414 1.414 1.414Zm1.947-1.3.765 1.847-.765-1.847Zm4.592 0 .765-1.848-.765 1.848Zm1.947 1.3 1.414-1.414-1.414 1.414ZM24 21.29c0-1.05-.207-2.09-.609-3.061l-3.695 1.53A4 4 0 0 1 20 21.29h4Zm-14 2h12v-4H10v4Zm-1.391-5.061A8 8 0 0 0 8 21.289h4a4 4 0 0 1 .305-1.53l-3.696-1.531Zm1.734-2.596a8.001 8.001 0 0 0-1.734 2.596l3.696 1.53a4 4 0 0 1 .867-1.297l-2.829-2.829Zm2.595-1.734a8.001 8.001 0 0 0-2.595 1.734l2.829 2.829a4.002 4.002 0 0 1 1.297-.867l-1.53-3.696ZM16 13.289a8 8 0 0 0-3.062.609l1.531 3.695A4 4 0 0 1 16 17.29v-4Zm3.061.609A8 8 0 0 0 16 13.289v4a4 4 0 0 1 1.53.304l1.531-3.695Zm2.596 1.734a8.001 8.001 0 0 0-2.596-1.734l-1.53 3.695c.485.202.926.496 1.297.868l2.829-2.829Zm1.734 2.596a8 8 0 0 0-1.734-2.596l-2.829 2.829a4 4 0 0 1 .867 1.297l3.696-1.53Zm-9.641 3.555a2.75 2.75 0 0 0 2.75-2.75h-4c0-.69.56-1.25 1.25-1.25v4ZM11 19.033a2.75 2.75 0 0 0 2.75 2.75v-4c.69 0 1.25.56 1.25 1.25h-4Zm2.75-2.75a2.75 2.75 0 0 0-2.75 2.75h4c0 .69-.56 1.25-1.25 1.25v-4Zm2.75 2.75a2.75 2.75 0 0 0-2.75-2.75v4c-.69 0-1.25-.56-1.25-1.25h4Zm1.75 2.75a2.75 2.75 0 0 0 2.75-2.75h-4c0-.69.56-1.25 1.25-1.25v4Zm-2.75-2.75a2.75 2.75 0 0 0 2.75 2.75v-4c.69 0 1.25.56 1.25 1.25h-4Zm2.75-2.75a2.75 2.75 0 0 0-2.75 2.75h4c0 .69-.56 1.25-1.25 1.25v-4Zm2.75 2.75a2.75 2.75 0 0 0-2.75-2.75v4c-.69 0-1.25-.56-1.25-1.25h4Z" fill="#C63031" mask="url(#a)"/><path fill-rule="evenodd" clip-rule="evenodd" d="M12.11 14.44a.75.75 0 0 1 1.054.116l1.874 2.343a.75.75 0 1 1-1.171.937l-1.875-2.343a.75.75 0 0 1 .118-1.054ZM20.07 14.44a.75.75 0 0 0-1.054.116L17.142 16.9a.75.75 0 1 0 1.171.937l1.874-2.343a.75.75 0 0 0-.117-1.054Z" fill="#C63031"/></svg>
